X: 10421
T: BOTTOM OF THE PUNCH BOWL
C:
%R: reel
B: Elias Howe "The Musician's Companion" Part 1 1842 p.42 #1
S: http://imslp.org/wiki/The_Musician's_Companion_(Howe,_Elias)
Z: 2015 John Chambers <jc:trillian.mit.edu>
M: C|
L: 1/8
K: D
% - - - - - - - - - - - - - - - - - - - - - - - - -
A, |\
D2D2 D3E | DEFE DCB,A, | B,2E2 E3F | EDEF GFED |\
A2A2 A2FA | dcde fedc | BABc BAFA | FAdF BABc :|
|:\
D2d2 d3e | defe dcBA | A2e2 e3f | edef gfed |\
fgfe dedB | Aaab afed | BABc BAFA | cFdF EDEF :|
% - - - - - - - - - - - - - - - - - - - - - - - - -


